X:1
T:Title
%%score ( 1 2 ) { 3 | 4 }
L:1/8
Q:1/4=125
M:4/4
K:G
V:1 treble nm="Grand Piano, Unnamed-000"
V:2 treble 
V:3 bass nm="Choir Pad, Unnamed-001"
V:4 bass 
V:1
 [DG]4 [EG]2 [EG]2 | [DG]4 [DG]2 A2 | B4 z4 | F4 z4 | [B,B]4 [GB]2 [GB]2 | [Gc]4 [Fd]2 [DF]2 | %6
w: By~John~Bacchus~Dykes,~1866 * *||||||
 [DF]2 [DG]2 [^CE]4 | D8 | [=FA]4 [FB]2 [FB]2 | [Ec]4 A2 [DA]2 | [DB]4 E2 [EA]2 | G4 z4 | %12
w: ||||||
 [EG]4 [Ec]2 [Ec]2 | [Dc]4 [DB]2 D2 | [CE]2 [CE]2 [CF]4 | [B,G]8 |] %16
w: ||||
V:2
 x8 | x8 | G2 F2 [EA]2 [EG]2 | D2 C2 [B,G]4 | x8 | x8 | x8 | x8 | x8 | x8 | x8 | D2 E2 F4 | x8 | %13
 x8 | x8 | x8 |] %16
V:3
 B,4 B,2 C2 | B,4 D2[K:treble] D2 | D4 C2 B,2 | A,4 G,4 | D4 D2 D2 | A,4 A,2 D,2 | B,2 B,2 G,4 | %7
 F,8 | D4 D2 D2 | C4 D2 C2 | B,4 G,2 C2 | B,4 A,2 C2 | B,4 A,2 A,2 | A,4 G,2 G,2 | C2 B,2 A,4 | %15
 G,8 |] %16
V:4
 G,4 G,2 G,2 | G,4 B,2 F,2 | G,4 C,2 C,2 | D,4 G,,4 | G,4 G,2 F,2 | E,4 D,2 B,,2 | D,2 A,,2 A,,4 | %7
 D,8 | D,4 G,2 G,2 | A,2 G,2 F,2 F,2 | G,2 B,,2 C,2 C,2 | D,4 D,4 | E,4 z2 G,2 | F,4 z2 B,,2 | %14
 C,2 C,2 D,4 | G,,8 |] %16

